X:1
T:Title
%%score { ( 1 3 ) | ( 2 4 ) }
L:1/8
M:4/4
K:G
V:1 treble nm="Grand Piano"
V:3 treble 
V:2 bass 
V:4 bass 
V:1
 z4[Q:1/4=100] [B,D]2 [B,G]2 | [DB]3 [DG] FEFD | [B,G]3 [CA] B^cdB | .[DB]2 .[A,DG]2 .[G,DE]2 GA | %4
[M:2/4] D4 | [B,D]2 [B,G]2 |[M:4/4] [DB]3 [DG] FEFD | [B,G]3 [CA] B^cdB | %8
 .[DB]2 .[A,DG]2 .[G,DE]2 .[^CG]2 |[M:2/4][K:bass] [F,D]4 | z4 |[M:4/4][K:treble] [A,CDA]4 AcBA | %12
 [G,B,DG]4 DE .F2 | [A,CDA]4 AcBA |[M:2/4] [B,G]4 | B2 B2 |[M:4/4] z2 C2 d2 e2 | [Gd]4 [CF]4 | %18
[M:2/4] [B,G]4 |[M:4/4] [CG]4 [B,G]4 |] %20
V:2
 z4 [G,,G,]2 [G,,G,]2 | [G,,G,]3 [B,,G,] [D,A,C]2 [D,A,C]2 | [G,,G,]4 [G,,G,]2 [^G,,=F,]2 | %3
 z A z F z F [A,,E,]2 |[M:2/4] [D,F,]4 | [G,,G,]2 [G,,G,]2 | %6
[M:4/4] [G,,G,]3 [B,,G,] [D,A,C]2 [D,A,C]2 | [G,,G,]4 [G,,G,]2 [^G,,=F,]2 | %8
 z A z F z F z[K:treble] A |[M:2/4] D,4 | DE FG |[M:4/4][K:bass] F,,2 D,,2 [F,,D,F,]2 [D,,D,F,C]2 | %12
 G,,2 D,,2 G,,2 z G | F,,2 D,,2 [F,,D,F,]2 [D,,F,C]2 |[M:2/4] [G,,G,]4 | [=F,G,D]2 [F,G,D]2 | %16
[M:4/4] [E,E]4 z4 | [D,B,]4 [D,A,]4 |[M:2/4] [G,,G,]4 |[M:4/4] [C,E,]4 [G,,D,]4 |] %20
V:3
 x8 | x8 | z4 D2 D2 | z4 z2 ^C2 |[M:2/4] x4 | x4 |[M:4/4] x8 | z4 D2 D2 | x8 |[M:2/4][K:bass] x4 | %10
 x4 |[M:4/4][K:treble] z4 D2 z2 | x8 | z4 D2 z2 |[M:2/4] x4 | x4 |[M:4/4] c4 G4 | x8 |[M:2/4] x4 | %19
[M:4/4] x8 |] %20
V:4
 x8 | x8 | x8 | [A,,F,]2 A,,2 A,,2 z2 |[M:2/4] x4 | x4 |[M:4/4] x8 | x8 | %8
 [A,,F,]2 A,,2 A,,2 [A,,E,]2[K:treble] |[M:2/4] x4 | x4 |[M:4/4][K:bass] x8 | z4 z2 D,,2 | x8 | %14
[M:2/4] x4 | x4 |[M:4/4] G,2 z2 [D,B,]2 [C,C]2 | x8 |[M:2/4] x4 |[M:4/4] x8 |] %20

